X:1
T:The Loch Tay Boat Song
M:4/4
L:1/4
K:D
 D E| F3/2 E/2 DF/2-A/2| A2 F D| d c B/2- A F/2| A2| F D| G3/2 A/2B/2-A/2 G|\
 A2 F3/2 A/2| F E E3/2 E/2| F E| A G| F3/2 E/2 DF/2-A/2| A2 F D| d c B/2- A F/2|\
 A2| F D| G3/2 A/2B/2-A/2 G| A2 F3/2 A/2| F/2 E3/2 D/2- C D/2| D2|\
 F A| d/2 c3/2 B A| A2 F A| d c B/2 A3/2| A2| F A| d3/2 c/2B/2 A3/2|\
 A2 F F/2A/2| F/2 E3/2 E3/2 E/2| F E| A G| F3/2 E/2 DF/2-A/2| A2 F D|\
 d3/2 c/2 B/2- A F/2| A2| F D| G3/2 A/2B/2-A/2 G| A2 F A| D3/2 D/2 C3/2 D/2|\
 D2||
